X: 1
T: Flowers In Bloom, The
M: 6/8
L: 1/8
R: jig
K: Gmaj
|:D|&quot;G&quot;GDB, G,B,D|GBA GFE|&quot;D&quot;FDD DFA|ced cBA|
&quot;G&quot;GDB, G,B,D|GBA GFE|&quot;D&quot;FDD DcB|AGF &quot;G&quot;G2:|
|:d|&quot;G&quot;gdg bag|&quot;D&quot;fdf agf|&quot;C&quot;ece gfe|&quot;G&quot;dBA GAB|
&quot;C&quot;ced cBA|&quot;G&quot;Bdc BAG|&quot;D&quot;FDD DFA|def &quot;G&quot;g2:|
